X:39
T:B039-  Bonny Nell
Q:1/4=120
L:1/4
M:C|
K:Gdorian
zGGG|d3G|G/2A/2 B/2c/2 (d2|d)f/2e/2dc|B/2c/2dc3/2B/2|\
B3B|cA(c2|c)B/2A/2 G/2A/2B/2c/2|A4|zDDD|d3c/2B/2|\
A3/2G/2G2|zgfd|f3 B/2c/2|dc3/4B/4 B2|zff_e|\
dc/2d/2 _e/2d/2 c/2B/2|A3/2G/2G2|]
